X:35
T:Allegro. RDO.35
M:2/4
L:1/16
Q:1/4=90
S:Robert D. Owen MS,Indiana,1826.
R:.Country Dance
N:Very Hornpipey.
O:Indiana,USA
A:New Harmony
Z:vmp.Chris Partington
K:G
dc|B2Bc dgfg| f2ee edcB|BGAA ABcd|c4B2dc|!
B2Bc defg|b3a gfed|cBed d2F2|A4G2:|!
|:Bc|d^cde dfa2|d^cde dfa2|c’2c’a b2bg|a^gab a2Bc|!
d^cde dfa2|{e}d^cde dfa2|a^gab a=gfe|e4d2:|

